X:49
T:Ashleys Ride. LIT.049
T:Astley's Ride,aka. LIT.049
M:2/2
Q:1/4=150
L:1/8
B:Wm. Litten MS, 1802
Z:Village Music Project 2017 Anne Wride
K:D
A2 | d2d2d2fd | e2e2e2ge | dcBA defb | agfe d2d2 |
d2fde2e2 | e2ge dcBA | dcBA Bdce | d2D2D2 :|
|: A2 | f2f2f2af | g2g2g2bg | f2f2f2af | edcB ABcA |
f2f2f2 af | g2g2g2bg | fafd egec | d2D2D2 :|
T:"Reworked first line"
|: A2 | d2d2d2fd | e2e2e2ge | dcBA defb | agfe e2A2 |
d2d2d2fd | e2e2e2ge | dcBA dcBA | Bdce d2d2 :|

